bernoullicharts/2014_add_x_0_5_bound.svg

<?xml version="1.0" encoding="utf-8" standalone="no"?>
<!DOCTYPE svg PUBLIC "-//W3C//DTD SVG 1.1//EN"
  "http://www.w3.org/Graphics/SVG/1.1/DTD/svg11.dtd">
<!-- Created with matplotlib (https://matplotlib.org/) -->
<svg height="345.6pt" version="1.1" viewBox="0 0 460.8 345.6" width="460.8pt" xmlns="http://www.w3.org/2000/svg" xmlns:xlink="http://www.w3.org/1999/xlink">
 <defs>
  <style type="text/css">
*{stroke-linecap:butt;stroke-linejoin:round;}
  </style>
 </defs>
 <g id="figure_1">
  <g id="patch_1">
   <path d="M 0 345.6 
L 460.8 345.6 
L 460.8 0 
L 0 0 
z
" style="fill:#ffffff;"/>
  </g>
  <g id="axes_1">
   <g id="patch_2">
    <path d="M 57.6 307.584 
L 414.72 307.584 
L 414.72 41.472 
L 57.6 41.472 
z
" style="fill:#ffffff;"/>
   </g>
   <g id="matplotlib.axis_1">
    <g id="xtick_1">
     <g id="line2d_1">
      <defs>
       <path d="M 0 0 
L 0 3.5 
" id="mb0050ddd0e" style="stroke:#000000;stroke-width:0.8;"/>
      </defs>
      <g>
       <use style="stroke:#000000;stroke-width:0.8;" x="73.767121" xlink:href="#mb0050ddd0e" y="307.584"/>
      </g>
     </g>
     <g id="text_1">
      <text style="font-family:DejaVu Sans;font-size:10px;font-style:normal;font-weight:normal;text-anchor:middle;" transform="rotate(-0, 73.767121, 322.182437)" x="73.767121" y="322.182437">0.0</text>
     </g>
    </g>
    <g id="xtick_2">
     <g id="line2d_2">
      <g>
       <use style="stroke:#000000;stroke-width:0.8;" x="139.373711" xlink:href="#mb0050ddd0e" y="307.584"/>
      </g>
     </g>
     <g id="text_2">
      <text style="font-family:DejaVu Sans;font-size:10px;font-style:normal;font-weight:normal;text-anchor:middle;" transform="rotate(-0, 139.373711, 322.182437)" x="139.373711" y="322.182437">0.1</text>
     </g>
    </g>
    <g id="xtick_3">
     <g id="line2d_3">
      <g>
       <use style="stroke:#000000;stroke-width:0.8;" x="204.980302" xlink:href="#mb0050ddd0e" y="307.584"/>
      </g>
     </g>
     <g id="text_3">
      <text style="font-family:DejaVu Sans;font-size:10px;font-style:normal;font-weight:normal;text-anchor:middle;" transform="rotate(-0, 204.980302, 322.182437)" x="204.980302" y="322.182437">0.2</text>
     </g>
    </g>
    <g id="xtick_4">
     <g id="line2d_4">
      <g>
       <use style="stroke:#000000;stroke-width:0.8;" x="270.586893" xlink:href="#mb0050ddd0e" y="307.584"/>
      </g>
     </g>
     <g id="text_4">
      <text style="font-family:DejaVu Sans;font-size:10px;font-style:normal;font-weight:normal;text-anchor:middle;" transform="rotate(-0, 270.586893, 322.182437)" x="270.586893" y="322.182437">0.3</text>
     </g>
    </g>
    <g id="xtick_5">
     <g id="line2d_5">
      <g>
       <use style="stroke:#000000;stroke-width:0.8;" x="336.193484" xlink:href="#mb0050ddd0e" y="307.584"/>
      </g>
     </g>
     <g id="text_5">
      <text style="font-family:DejaVu Sans;font-size:10px;font-style:normal;font-weight:normal;text-anchor:middle;" transform="rotate(-0, 336.193484, 322.182437)" x="336.193484" y="322.182437">0.4</text>
     </g>
    </g>
    <g id="xtick_6">
     <g id="line2d_6">
      <g>
       <use style="stroke:#000000;stroke-width:0.8;" x="401.800074" xlink:href="#mb0050ddd0e" y="307.584"/>
      </g>
     </g>
     <g id="text_6">
      <text style="font-family:DejaVu Sans;font-size:10px;font-style:normal;font-weight:normal;text-anchor:middle;" transform="rotate(-0, 401.800074, 322.182437)" x="401.800074" y="322.182437">0.5</text>
     </g>
    </g>
    <g id="text_7">
     <text style="font-family:DejaVu Sans;font-size:10px;font-style:normal;font-weight:normal;text-anchor:middle;" transform="rotate(-0, 236.16, 335.860562)" x="236.16" y="335.860562">Input Coin's Heads Probability (λ)</text>
    </g>
   </g>
   <g id="matplotlib.axis_2">
    <g id="ytick_1">
     <g id="line2d_7">
      <defs>
       <path d="M 0 0 
L -3.5 0 
" id="md150db6030" style="stroke:#000000;stroke-width:0.8;"/>
      </defs>
      <g>
       <use style="stroke:#000000;stroke-width:0.8;" x="57.6" xlink:href="#md150db6030" y="295.489848"/>
      </g>
     </g>
     <g id="text_8">
      <text style="font-family:DejaVu Sans;font-size:10px;font-style:normal;font-weight:normal;text-anchor:end;" transform="rotate(-0, 50.6, 299.289067)" x="50.6" y="299.289067">0</text>
     </g>
    </g>
    <g id="ytick_2">
     <g id="line2d_8">
      <g>
       <use style="stroke:#000000;stroke-width:0.8;" x="57.6" xlink:href="#md150db6030" y="249.282757"/>
      </g>
     </g>
     <g id="text_9">
      <text style="font-family:DejaVu Sans;font-size:10px;font-style:normal;font-weight:normal;text-anchor:end;" transform="rotate(-0, 50.6, 253.081975)" x="50.6" y="253.081975">10</text>
     </g>
    </g>
    <g id="ytick_3">
     <g id="line2d_9">
      <g>
       <use style="stroke:#000000;stroke-width:0.8;" x="57.6" xlink:href="#md150db6030" y="203.075665"/>
      </g>
     </g>
     <g id="text_10">
      <text style="font-family:DejaVu Sans;font-size:10px;font-style:normal;font-weight:normal;text-anchor:end;" transform="rotate(-0, 50.6, 206.874884)" x="50.6" y="206.874884">20</text>
     </g>
    </g>
    <g id="ytick_4">
     <g id="line2d_10">
      <g>
       <use style="stroke:#000000;stroke-width:0.8;" x="57.6" xlink:href="#md150db6030" y="156.868574"/>
      </g>
     </g>
     <g id="text_11">
      <text style="font-family:DejaVu Sans;font-size:10px;font-style:normal;font-weight:normal;text-anchor:end;" transform="rotate(-0, 50.6, 160.667792)" x="50.6" y="160.667792">30</text>
     </g>
    </g>
    <g id="ytick_5">
     <g id="line2d_11">
      <g>
       <use style="stroke:#000000;stroke-width:0.8;" x="57.6" xlink:href="#md150db6030" y="110.661482"/>
      </g>
     </g>
     <g id="text_12">
      <text style="font-family:DejaVu Sans;font-size:10px;font-style:normal;font-weight:normal;text-anchor:end;" transform="rotate(-0, 50.6, 114.460701)" x="50.6" y="114.460701">40</text>
     </g>
    </g>
    <g id="ytick_6">
     <g id="line2d_12">
      <g>
       <use style="stroke:#000000;stroke-width:0.8;" x="57.6" xlink:href="#md150db6030" y="64.454391"/>
      </g>
     </g>
     <g id="text_13">
      <text style="font-family:DejaVu Sans;font-size:10px;font-style:normal;font-weight:normal;text-anchor:end;" transform="rotate(-0, 50.6, 68.25361)" x="50.6" y="68.25361">50</text>
     </g>
    </g>
    <g id="text_14">
     <text style="font-family:DejaVu Sans;font-size:10px;font-style:normal;font-weight:normal;text-anchor:middle;" transform="rotate(-90, 31.795312, 174.528)" x="31.795312" y="174.528">Coin Flips Needed</text>
    </g>
   </g>
   <g id="line2d_13">
    <path clip-path="url(#p58877843a7)" d="M 73.832727 295.488 
L 80.45833 295.303187 
L 87.083933 295.121692 
L 93.709536 294.943083 
L 100.335139 294.766936 
L 106.960742 294.592838 
L 113.586345 294.42038 
L 120.211948 294.249152 
L 126.837551 294.078744 
L 133.463154 293.908742 
L 140.088757 293.738719 
L 146.71436 293.568238 
L 153.339963 293.396842 
L 159.965566 293.224053 
L 166.591169 293.049365 
L 173.216772 292.872239 
L 179.842375 292.692092 
L 186.467978 292.508296 
L 193.093581 292.320161 
L 199.719184 292.12693 
L 206.344787 291.927761 
L 212.97039 291.721713 
L 219.595993 291.507728 
L 226.221596 291.284605 
L 232.847199 291.050971 
L 239.472801 290.805246 
L 246.098404 290.545598 
L 252.724007 290.269884 
L 259.34961 289.975578 
L 265.975213 289.659677 
L 272.600816 289.318576 
L 279.226419 288.947905 
L 285.852022 288.542312 
L 292.477625 288.095161 
L 299.103228 287.598116 
L 305.728831 287.040558 
L 312.354434 286.408739 
L 318.980037 285.684521 
L 325.60564 284.843479 
L 332.231243 283.851893 
L 338.856846 282.661868 
L 345.482449 281.202982 
L 352.108052 279.367279 
L 358.733655 276.980384 
L 365.359258 273.741132 
L 371.984861 269.080677 
L 378.610464 261.780103 
L 385.236067 248.670262 
L 391.86167 218.131024 
L 398.487273 65.581402 
" style="fill:none;stroke:#1f77b4;stroke-linecap:square;stroke-width:1.5;"/>
   </g>
   <g id="line2d_14">
    <path clip-path="url(#p58877843a7)" d="M 73.832727 239.819544 
L 80.45833 250.15145 
L 87.083933 244.236942 
L 93.709536 249.476826 
L 100.335139 239.542302 
L 106.960742 234.25621 
L 113.586345 234.126831 
L 120.211948 229.607777 
L 126.837551 238.886161 
L 133.463154 230.984748 
L 140.088757 241.298171 
L 146.71436 234.330142 
L 153.339963 230.116055 
M 166.591169 221.41988 
L 173.216772 220.976292 
L 179.842375 222.344022 
L 186.467978 216.817654 
M 199.719184 220.079875 
L 206.344787 222.06678 
L 212.97039 219.349803 
L 219.595993 207.141889 
L 226.221596 195.719496 
L 232.847199 193.65866 
L 239.472801 208.241618 
L 246.098404 202.632077 
L 252.724007 183.502341 
L 259.34961 196.218533 
M 272.600816 185.90511 
M 285.852022 144.170865 
M 299.103228 174.251682 
L 305.728831 167.015651 
M 318.980037 163.069565 
" style="fill:none;stroke:#ff7f0e;stroke-linecap:square;stroke-width:1.5;"/>
   </g>
   <g id="line2d_15">
    <path clip-path="url(#p58877843a7)" d="M 73.832727 183.594755 
L 80.45833 188.344844 
L 87.083933 193.898937 
L 93.709536 194.324042 
L 100.335139 199.443788 
L 106.960742 175.231272 
L 113.586345 179.851981 
L 120.211948 182.44882 
L 126.837551 173.91899 
L 133.463154 175.80424 
L 140.088757 163.540878 
L 146.71436 177.153487 
L 153.339963 169.427661 
L 159.965566 164.409571 
M 173.216772 164.391088 
L 179.842375 141.102714 
L 186.467978 143.385344 
L 193.093581 135.243655 
L 199.719184 129.60639 
L 206.344787 99.95992 
L 212.97039 102.344206 
L 219.595993 121.187458 
L 226.221596 105.597185 
L 232.847199 100.015368 
L 239.472801 121.59408 
L 246.098404 91.707333 
M 292.477625 53.568 
" style="fill:none;stroke:#2ca02c;stroke-linecap:square;stroke-width:1.5;"/>
   </g>
   <g id="line2d_16">
    <path clip-path="url(#p58877843a7)" d="M 0 0 
" style="fill:none;stroke:#d62728;stroke-linecap:square;stroke-width:1.5;"/>
   </g>
   <g id="patch_3">
    <path d="M 57.6 307.584 
L 57.6 41.472 
" style="fill:none;stroke:#000000;stroke-linecap:square;stroke-linejoin:miter;stroke-width:0.8;"/>
   </g>
   <g id="patch_4">
    <path d="M 414.72 307.584 
L 414.72 41.472 
" style="fill:none;stroke:#000000;stroke-linecap:square;stroke-linejoin:miter;stroke-width:0.8;"/>
   </g>
   <g id="patch_5">
    <path d="M 57.6 307.584 
L 414.72 307.584 
" style="fill:none;stroke:#000000;stroke-linecap:square;stroke-linejoin:miter;stroke-width:0.8;"/>
   </g>
   <g id="patch_6">
    <path d="M 57.6 41.472 
L 414.72 41.472 
" style="fill:none;stroke:#000000;stroke-linecap:square;stroke-linejoin:miter;stroke-width:0.8;"/>
   </g>
   <g id="text_15">
    <text style="font-family:DejaVu Sans;font-size:12px;font-style:normal;font-weight:normal;text-anchor:middle;" transform="rotate(-0, 236.16, 35.472)" x="236.16" y="35.472">Coin Flips for x+0.5</text>
   </g>
   <g id="legend_1">
    <g id="patch_7">
     <path d="M 64.6 108.1845 
L 276.314062 108.1845 
Q 278.314062 108.1845 278.314062 106.1845 
L 278.314062 48.472 
Q 278.314062 46.472 276.314062 46.472 
L 64.6 46.472 
Q 62.6 46.472 62.6 48.472 
L 62.6 106.1845 
Q 62.6 108.1845 64.6 108.1845 
z
" style="fill:#ffffff;opacity:0.8;stroke:#cccccc;stroke-linejoin:miter;"/>
    </g>
    <g id="line2d_17">
     <path d="M 66.6 54.570438 
L 86.6 54.570438 
" style="fill:none;stroke:#1f77b4;stroke-linecap:square;stroke-width:1.5;"/>
    </g>
    <g id="line2d_18"/>
    <g id="text_16">
     <text style="font-family:DejaVu Sans;font-size:10px;font-style:normal;font-weight:normal;text-anchor:start;" transform="rotate(-0, 94.6, 58.070438)" x="94.6" y="58.070438">Coin Flip Lower Bound (Mendo)</text>
    </g>
    <g id="line2d_19">
     <path d="M 66.6 69.248563 
L 86.6 69.248563 
" style="fill:none;stroke:#ff7f0e;stroke-linecap:square;stroke-width:1.5;"/>
    </g>
    <g id="line2d_20"/>
    <g id="text_17">
     <text style="font-family:DejaVu Sans;font-size:10px;font-style:normal;font-weight:normal;text-anchor:start;" transform="rotate(-0, 94.6, 72.748563)" x="94.6" y="72.748563">Avg. Coins Flipped 2014 Add. x+0.5</text>
    </g>
    <g id="line2d_21">
     <path d="M 66.6 83.926688 
L 86.6 83.926688 
" style="fill:none;stroke:#2ca02c;stroke-linecap:square;stroke-width:1.5;"/>
    </g>
    <g id="line2d_22"/>
    <g id="text_18">
     <text style="font-family:DejaVu Sans;font-size:10px;font-style:normal;font-weight:normal;text-anchor:start;" transform="rotate(-0, 94.6, 87.426688)" x="94.6" y="87.426688">Avg. Coins Flipped 2016 Add. x+0.5</text>
    </g>
    <g id="line2d_23">
     <path d="M 66.6 98.604813 
L 86.6 98.604813 
" style="fill:none;stroke:#d62728;stroke-linecap:square;stroke-width:1.5;"/>
    </g>
    <g id="line2d_24"/>
    <g id="text_19">
     <text style="font-family:DejaVu Sans;font-size:10px;font-style:normal;font-weight:normal;text-anchor:start;" transform="rotate(-0, 94.6, 102.104813)" x="94.6" y="102.104813">Avg. Coins Flipped 2019 Add. x+0.5</text>
    </g>
   </g>
  </g>
 </g>
 <defs>
  <clipPath id="p58877843a7">
   <rect height="266.112" width="357.12" x="57.6" y="41.472"/>
  </clipPath>
 </defs>
</svg>

<svg height="460.8" viewBox="0 0 460.8 345.6" width="614.4" xmlns="http://www.w3.org/2000/svg" xmlns:xlink="http://www.w3.org/1999/xlink"><defs><style>*{stroke-linecap:butt;stroke-linejoin:round}</style></defs><g id="figure_1"><path d="M0 345.6h460.8V0H0z" fill="#fff" id="patch_1"/><g id="axes_1"><path d="M57.6 307.584h357.12V41.472H57.6z" fill="#fff" id="patch_2"/><g id="matplotlib.axis_1"><g id="xtick_1"><g id="line2d_1"><defs><path d="M0 0v3.5" id="mb0050ddd0e" stroke="#000" stroke-width=".8"/></defs><use x="73.767" xlink:href="#mb0050ddd0e" y="307.584" stroke="#000" stroke-width=".8"/></g><text x="73.767" y="322.182" font-family="DejaVu Sans" font-size="10" font-weight="400" text-anchor="middle" id="text_1">0.0</text></g><g id="xtick_2"><use x="139.374" xlink:href="#mb0050ddd0e" y="307.584" stroke="#000" stroke-width=".8" id="line2d_2"/><text x="139.374" y="322.182" font-family="DejaVu Sans" font-size="10" font-weight="400" text-anchor="middle" id="text_2">0.1</text></g><g id="xtick_3"><use x="204.98" xlink:href="#mb0050ddd0e" y="307.584" stroke="#000" stroke-width=".8" id="line2d_3"/><text x="204.98" y="322.182" font-family="DejaVu Sans" font-size="10" font-weight="400" text-anchor="middle" id="text_3">0.2</text></g><g id="xtick_4"><use x="270.587" xlink:href="#mb0050ddd0e" y="307.584" stroke="#000" stroke-width=".8" id="line2d_4"/><text x="270.587" y="322.182" font-family="DejaVu Sans" font-size="10" font-weight="400" text-anchor="middle" id="text_4">0.3</text></g><g id="xtick_5"><use x="336.193" xlink:href="#mb0050ddd0e" y="307.584" stroke="#000" stroke-width=".8" id="line2d_5"/><text x="336.193" y="322.182" font-family="DejaVu Sans" font-size="10" font-weight="400" text-anchor="middle" id="text_5">0.4</text></g><g id="xtick_6"><use x="401.8" xlink:href="#mb0050ddd0e" y="307.584" stroke="#000" stroke-width=".8" id="line2d_6"/><text x="401.8" y="322.182" font-family="DejaVu Sans" font-size="10" font-weight="400" text-anchor="middle" id="text_6">0.5</text></g><text x="236.16" y="335.861" font-family="DejaVu Sans" font-size="10" font-weight="400" text-anchor="middle" id="text_7">Input Coin&apos;s Heads Probability (λ)</text></g><g id="matplotlib.axis_2"><g id="ytick_1"><g id="line2d_7"><defs><path d="M0 0h-3.5" id="md150db6030" stroke="#000" stroke-width=".8"/></defs><use x="57.6" xlink:href="#md150db6030" y="295.49" stroke="#000" stroke-width=".8"/></g><text x="50.6" y="299.289" font-family="DejaVu Sans" font-size="10" font-weight="400" text-anchor="end" id="text_8">0</text></g><g id="ytick_2"><use x="57.6" xlink:href="#md150db6030" y="249.283" stroke="#000" stroke-width=".8" id="line2d_8"/><text x="50.6" y="253.082" font-family="DejaVu Sans" font-size="10" font-weight="400" text-anchor="end" id="text_9">10</text></g><g id="ytick_3"><use x="57.6" xlink:href="#md150db6030" y="203.076" stroke="#000" stroke-width=".8" id="line2d_9"/><text x="50.6" y="206.875" font-family="DejaVu Sans" font-size="10" font-weight="400" text-anchor="end" id="text_10">20</text></g><g id="ytick_4"><use x="57.6" xlink:href="#md150db6030" y="156.869" stroke="#000" stroke-width=".8" id="line2d_10"/><text x="50.6" y="160.668" font-family="DejaVu Sans" font-size="10" font-weight="400" text-anchor="end" id="text_11">30</text></g><g id="ytick_5"><use x="57.6" xlink:href="#md150db6030" y="110.661" stroke="#000" stroke-width=".8" id="line2d_11"/><text x="50.6" y="114.461" font-family="DejaVu Sans" font-size="10" font-weight="400" text-anchor="end" id="text_12">40</text></g><g id="ytick_6"><use x="57.6" xlink:href="#md150db6030" y="64.454" stroke="#000" stroke-width=".8" id="line2d_12"/><text x="50.6" y="68.254" font-family="DejaVu Sans" font-size="10" font-weight="400" text-anchor="end" id="text_13">50</text></g><text transform="rotate(-90 31.795 174.528)" x="31.795" y="174.528" font-family="DejaVu Sans" font-size="10" font-weight="400" text-anchor="middle" id="text_14">Coin Flips Needed</text></g><path clip-path="url(#p58877843a7)" d="M73.833 295.488l6.625-.185 6.626-.181 6.626-.179 6.625-.176 6.626-.174 6.625-.173 6.626-.17 6.626-.171 6.625-.17 6.626-.17 6.625-.17 6.626-.172 6.626-.173 6.625-.175 6.626-.177 6.625-.18 6.626-.184 6.626-.188 6.625-.193 6.626-.2 6.625-.205 6.626-.214 6.626-.223 6.625-.234 6.626-.246 6.625-.26 6.626-.275 6.626-.294 6.625-.316 6.626-.341 6.625-.371 6.626-.406 6.626-.447 6.625-.497 6.626-.557 6.625-.632 6.626-.724 6.626-.842 6.625-.991 6.626-1.19 6.625-1.459 6.626-1.836 6.626-2.387 6.625-3.239 6.626-4.66 6.625-7.3 6.626-13.11 6.626-30.54 6.625-152.55" fill="none" stroke="#1f77b4" stroke-linecap="square" stroke-width="1.5" id="line2d_13"/><path clip-path="url(#p58877843a7)" d="M73.833 239.82l6.625 10.331 6.626-5.914 6.626 5.24 6.625-9.935 6.626-5.286 6.625-.13 6.626-4.518 6.626 9.278 6.625-7.901 6.626 10.313 6.625-6.968 6.626-4.214m13.251-8.696l6.626-.444 6.625 1.368 6.626-5.526m13.251 3.262l6.626 1.987 6.625-2.717 6.626-12.208 6.626-11.423 6.625-2.06 6.626 14.583 6.625-5.61 6.626-19.13 6.626 12.717M299.103 174.25l6.626-7.235m13.251-3.946" fill="none" stroke="#ff7f0e" stroke-linecap="square" stroke-width="1.5" id="line2d_14"/><path clip-path="url(#p58877843a7)" d="M73.833 183.595l6.625 4.75 6.626 5.554 6.626.425 6.625 5.12 6.626-24.213 6.625 4.621 6.626 2.597 6.626-8.53 6.625 1.885 6.626-12.263 6.625 13.612 6.626-7.725 6.626-5.018m13.25-.019l6.626-23.288 6.626 2.282 6.626-8.141 6.625-5.638 6.626-29.646 6.625 2.384 6.626 18.843 6.626-15.59 6.625-5.582 6.626 21.58 6.625-29.888m46.38-38.139" fill="none" stroke="#2ca02c" stroke-linecap="square" stroke-width="1.5" id="line2d_15"/><path d="M57.6 307.584V41.472" fill="none" stroke="#000" stroke-linecap="square" stroke-width=".8" id="patch_3"/><path d="M414.72 307.584V41.472" fill="none" stroke="#000" stroke-linecap="square" stroke-width=".8" id="patch_4"/><path d="M57.6 307.584h357.12" fill="none" stroke="#000" stroke-linecap="square" stroke-width=".8" id="patch_5"/><path d="M57.6 41.472h357.12" fill="none" stroke="#000" stroke-linecap="square" stroke-width=".8" id="patch_6"/><text x="236.16" y="35.472" font-family="DejaVu Sans" font-size="12" font-weight="400" text-anchor="middle" id="text_15">Coin Flips for x+0.5</text><g id="legend_1"><path d="M64.6 108.184h211.714q2 0 2-2V48.472q0-2-2-2H64.6q-2 0-2 2v57.712q0 2 2 2z" fill="#fff" opacity=".8" stroke="#ccc" id="patch_7"/><path d="M66.6 54.57h20" fill="none" stroke="#1f77b4" stroke-linecap="square" stroke-width="1.5" id="line2d_17"/><text x="94.6" y="58.07" font-family="DejaVu Sans" font-size="10" font-weight="400" id="text_16">Coin Flip Lower Bound (Mendo)</text><path d="M66.6 69.249h20" fill="none" stroke="#ff7f0e" stroke-linecap="square" stroke-width="1.5" id="line2d_19"/><text x="94.6" y="72.749" font-family="DejaVu Sans" font-size="10" font-weight="400" id="text_17">Avg. Coins Flipped 2014 Add. x+0.5</text><path d="M66.6 83.927h20" fill="none" stroke="#2ca02c" stroke-linecap="square" stroke-width="1.5" id="line2d_21"/><text x="94.6" y="87.427" font-family="DejaVu Sans" font-size="10" font-weight="400" id="text_18">Avg. Coins Flipped 2016 Add. x+0.5</text><path d="M66.6 98.605h20" fill="none" stroke="#d62728" stroke-linecap="square" stroke-width="1.5" id="line2d_23"/><text x="94.6" y="102.105" font-family="DejaVu Sans" font-size="10" font-weight="400" id="text_19">Avg. Coins Flipped 2019 Add. x+0.5</text></g></g></g><defs><clipPath id="p58877843a7"><path d="M57.6 41.472h357.12v266.112H57.6z"/></clipPath></defs></svg>
